svg/surgical_sterilization_positive.svg

<?xml version="1.0" encoding="UTF-8" standalone="no"?>
<!-- Created with Inkscape (http://www.inkscape.org/) -->
<svg id="svg8" xmlns:rdf="http://www.w3.org/1999/02/22-rdf-syntax-ns#" xmlns="http://www.w3.org/2000/svg" xmlns:osb="http://www.openswatchbook.org/uri/2009/osb" height="48" width="48" version="1.1" xmlns:cc="http://creativecommons.org/ns#" viewBox="0 0 12.7 12.7" xmlns:dc="http://purl.org/dc/elements/1.1/">
 <title id="title4753">UIO-icon</title>
 <metadata id="metadata5">
  <rdf:RDF>
   <cc:Work rdf:about="">
    <dc:format>image/svg+xml</dc:format>
    <dc:type rdf:resource="http://purl.org/dc/dcmitype/StillImage"/>
    <dc:title>UIO-icon</dc:title>
    <dc:creator>
     <cc:Agent>
      <dc:title>Joaquín Urbano</dc:title>
     </cc:Agent>
    </dc:creator>
    <dc:rights>
     <cc:Agent>
      <dc:title>GPL</dc:title>
     </cc:Agent>
    </dc:rights>
   </cc:Work>
  </rdf:RDF>
 </metadata>
 <g id="layer1" transform="translate(0,-284.3)" fill="#333">
  <path id="path902" d="m12.184 4.6641c-1.257 0.68357-1.7306 1.4608-2.1895 2.1875l0.0995 4.8494c0.4636 1.1507 0.8827 2.3502-0.050781 5.0508l-0.009766 1.0684 2.6113-2.0488-0.009766-0.6582c-0.2604-0.008202-0.60257-0.02434-0.60156-0.40039l0.033203-1.873c0.12648-1.0604 0.3945-2.0706 0.35156-3.2598-0.078-1.6391-0.248-3.5802-0.234-4.9161zm16.346 0c-1.2536 0.00061833-2.2695 1.1652-2.2695 2.6016 0.00002987 1.4364 1.016 2.6009 2.2695 2.6016 0.043025-0.0012076 0.086011-0.0038062 0.12891-0.0078125h1.622l0.34375 0.36914-0.003906 0.80859 0.93555 18.27 0.70508-0.52734-0.79297-17.742h1.5078l-0.44922 17.836-0.95508 0.70508c0.08234 4.4521 0.23419 9.3402 0.375 13.758h0.444l-0.127-11.198 0.886-0.42 0.676-20.682 0.01-0.808 0.334-0.3618h1.7598c1.2543 0.00061758 2.2715-1.1643 2.2715-2.6016-0.00003009-1.4373-1.0172-2.6022-2.2715-2.6016-1.2536 0.00061833-2.2695 1.1652-2.2695 2.6016 0.00059628 0.010432 0.001247 0.020818 0.001953 0.03125h-0.001953v2.002l-0.56055 0.62891h-1.738l-0.56-0.6289v-2.0039c0.00004797-0.0097512 0.00004797-0.019546 0-0.029297 0-1.4372-1.017-2.6022-2.272-2.6015zm3.8613 38.672h0.48242l0.26953-11.408-0.62695 0.28125zm-3.862-38.295c1.0725-0.00073058 1.9421 0.9957 1.9414 2.2246-0.00059472 0.0097512-0.001246 0.019546-0.001953 0.029297-0.00076534 0.073092-0.004676 0.1461-0.011719 0.21875v0.0039063c-0.001265 0.0078236-0.002568 0.015652-0.003906 0.023438-0.006273 0.060922-0.014744 0.12152-0.025391 0.18164v0.0039063c-0.00064466 0.0032519-0.001296 0.0065152-0.001953 0.0097656-0.003151 0.013039-0.006407 0.02608-0.009766 0.039062-0.009614 0.049247-0.020688 0.098103-0.033203 0.14648-0.001292 0.0038929-0.002595 0.0078258-0.003906 0.011719-0.008599 0.028876-0.017716 0.057508-0.027344 0.085938-0.014271 0.046809-0.029905 0.093061-0.046875 0.13867-0.024705 0.064607-0.05208 0.12783-0.082031 0.18945-0.001295 0.0032542-0.002597 0.0065152-0.003906 0.0097656-0.010768 0.021052-0.021837 0.041879-0.033203 0.0625-0.001946 0.0032564-0.003899 0.0065152-0.005859 0.0097656-0.018664 0.035792-0.038204 0.07095-0.058594 0.10547-0.001946 0.0032564-0.003899 0.0065152-0.005859 0.0097656-0.013367 0.020447-0.027041 0.040636-0.041016 0.060547-0.022544 0.035301-0.045992 0.06981-0.070312 0.10352-0.002593 0.0039307-0.005197 0.0078258-0.007813 0.011719-0.015335 0.0192-0.030962 0.038076-0.046875 0.056641-0.022174 0.028006-0.044968 0.055359-0.068359 0.082031-0.006467 0.0072189-0.012978 0.014379-0.019531 0.021484-0.040092 0.043691-0.081797 0.085394-0.125 0.125-0.007121 0.0065764-0.014283 0.013068-0.021484 0.019531-0.003248 0.0026192-0.006504 0.0052046-0.009766 0.0078125-0.013546 0.011263-0.027219 0.022394-0.041016 0.033203-0.034978 0.029367-0.070806 0.057373-0.10742 0.083984l-0.001953 0.0019531c-0.002602 0.0013043-0.005206 0.0026288-0.007813 0.0039063-0.003898 0.0026234-0.007805 0.0052046-0.011719 0.0078125-0.047656 0.032995-0.096529 0.06362-0.14648 0.091797l-0.003906 0.0039063c-0.003252 0.0013077-0.006507 0.0026318-0.009766 0.0039063-0.005198 0.002634-0.010407 0.0052424-0.015625 0.0078125-0.049808 0.027855-0.10064 0.053287-0.15234 0.076172l-0.003906 0.0019531c-0.050695 0.021997-0.10217 0.041541-0.1543 0.058594-0.004553 0.0013164-0.009111 0.0026409-0.013672 0.0039063-0.01429 0.0034356-0.028614 0.0067042-0.042969 0.0097656-0.029796 0.0079748-0.059752 0.015135-0.089844 0.021484-0.014284 0.0040819-0.028608 0.0080148-0.042969 0.011719h-0.005859c-0.042118 0.008126-0.084459 0.014618-0.12695 0.019531-0.005206 0.0006754-0.010414 0.0013261-0.015625 0.0019531-0.019504 0.0022919-0.039038 0.0042342-0.058594 0.0058594-0.003905 0.00066482-0.007811 0.0013155-0.011719 0.0019531-0.035769 0.002434-0.07159 0.0037588-0.10742 0.0039063h-0.003906c-1.071-0.0005-1.939-0.9954-1.939-2.2227-0.001-1.228 0.868-2.2241 1.939-2.2246zm7.4004 0c1.0725-0.00073058 1.9421 0.9957 1.9414 2.2246-0.0002651 1.2281-0.86957 2.2234-1.9414 2.2227h-0.003906c-0.062-0.0004-0.126-0.0043-0.189-0.0117h-0.003906c-0.062935-0.0075591-0.12551-0.018652-0.1875-0.033203h-0.003906c-0.028157-0.007748-0.056158-0.016206-0.083984-0.025391-0.034749-0.0093354-0.069268-0.01976-0.10352-0.03125-0.059-0.0214-0.119-0.0462-0.178-0.0743l-0.003906-0.0019531c-0.058-0.0287-0.115-0.0606-0.17-0.0957l-0.004-0.0019c-0.056-0.0347-0.11-0.0725-0.162-0.1133l-0.003906-0.0019531c-0.045026-0.036283-0.088686-0.074714-0.13086-0.11523-0.007202-0.006463-0.014363-0.012955-0.021484-0.019531-0.049016-0.047437-0.095949-0.097628-0.14062-0.15039l-0.001953-0.0019531c-0.013-0.0166-0.026-0.0335-0.039-0.0506-0.03-0.0379-0.06-0.077-0.088-0.1172-0.039-0.0571-0.077-0.1165-0.111-0.1778l-0.002-0.0019c-0.034-0.0614-0.065-0.1246-0.094-0.1895l-0.001953-0.0039063c-0.005-0.0142-0.01-0.0285-0.015-0.0429-0.023-0.0525-0.044-0.1059-0.063-0.1602-0.023-0.0678-0.043-0.1369-0.06-0.207-0.011-0.0446-0.02-0.0896-0.028-0.1348-0.005-0.0285-0.011-0.0572-0.015-0.0859-0.011-0.0718-0.019-0.1442-0.024-0.2168v-0.0039063c-0.002262-0.040316-0.003565-0.080698-0.003906-0.12109-0.00006392-0.010432-0.00006392-0.020818 0-0.03125-0.00067625-1.228 0.86772-2.2241 1.9395-2.2246zm-23.277 11.377-2.627 2.0625-0.005859 0.6582 2.6426-2.0742zm0.019531 1.293-2.6582 2.084-0.005859 0.6582 2.6738-2.0996zm0.017 1.289-2.689 2.111-0.0059 0.655 2.7049-2.123zm0.019531 1.2891-2.7207 2.1348-0.0058594 0.65625 2.7363-2.1465zm0.017578 1.291-2.752 2.1582-0.0058594 0.6582 2.7676-2.1699zm0.017578 1.291-2.7832 2.1855-0.0058594 0.65625 2.7988-2.1953zm0.017578 1.293-2.8125 2.209-0.15039 15.213c0.0089061 2.4962 3.2161 2.1751 3.207-0.11133zm19.648 5.6992c0.35376 0.00010507 0.64052 0.28686 0.64062 0.64062-0.00010516 0.35376-0.28686 0.64052-0.64062 0.64062-0.35453 0.00097512-0.64247-0.2861-0.64258-0.64062 0.00010407-0.35453 0.28805-0.6416 0.64258-0.64062zm-0.023438 0.33203c-0.16182 0.011679-0.28713 0.14636-0.28711 0.30859 0.0004214 0.17102 0.13953 0.30925 0.31055 0.30859 0.17026-0.00042066 0.30817-0.13834 0.30859-0.30859-0.00042027-0.17026-0.13834-0.30817-0.30859-0.30859-0.00781-0.00029594-0.015628-0.00029594-0.023438 0z" transform="matrix(.26458 0 0 .26458 0 284.3)"/>
 </g>
</svg>

<svg width="48" height="48" viewBox="0 0 48 48" fill="none" xmlns="http://www.w3.org/2000/svg">
<path d="M12.1839 4.66401C10.927 5.34757 10.4534 6.12479 9.99448 6.85148L10.094 11.7008C10.5576 12.8515 10.9767 14.051 10.0432 16.7516L10.0334 17.8199L12.6447 15.7712L12.6349 15.113C12.3745 15.1048 12.0324 15.0886 12.0334 14.7126L12.0666 12.8396C12.1931 11.7792 12.4611 10.769 12.4181 9.57986C12.3401 7.94078 12.1701 5.9997 12.1841 4.66382L12.1839 4.66401ZM28.5297 4.66401C27.2762 4.66463 26.2603 5.82919 26.2603 7.26558C26.2603 8.70196 27.2763 9.86644 28.5297 9.86714C28.5728 9.86594 28.6158 9.86334 28.6587 9.85933H30.2806L30.6244 10.2285L30.6205 11.037L31.556 29.3068L32.2611 28.7795L31.4681 11.0377H32.9759L32.5267 28.8735L31.5716 29.5786C31.654 34.0306 31.8058 38.9186 31.9466 43.3364H32.3906L32.2636 32.1385L33.1496 31.7185L33.8256 11.0368L33.8356 10.2288L34.1696 9.867H35.9294C37.1836 9.86762 38.2008 8.70272 38.2008 7.26543C38.2008 5.82815 37.1836 4.66327 35.9294 4.66387C34.6758 4.66448 33.6599 5.82905 33.6599 7.26543C33.6605 7.27586 33.6611 7.28625 33.6618 7.29668H33.6599V9.29866L33.0993 9.92756H31.3614L30.8014 9.29867V7.29479C30.8014 7.28504 30.8014 7.27525 30.8014 7.2655C30.8014 5.82831 29.7844 4.66333 28.5294 4.66403L28.5297 4.66401ZM32.391 43.3355H32.8734L33.1429 31.9277L32.516 32.2089L32.391 43.3355ZM28.529 5.041C29.6015 5.04027 30.4711 6.03669 30.4704 7.26558C30.4698 7.27533 30.4692 7.28512 30.4685 7.29487C30.4677 7.36796 30.4638 7.44097 30.4567 7.51362V7.51753C30.4555 7.52535 30.4542 7.53318 30.4528 7.54096C30.4466 7.60189 30.4381 7.66248 30.4274 7.7226V7.72651C30.4268 7.72976 30.4262 7.73302 30.4255 7.73627C30.4223 7.74931 30.4191 7.76235 30.4157 7.77533C30.4061 7.82458 30.395 7.87344 30.3825 7.92181C30.3812 7.92571 30.3799 7.92964 30.3786 7.93353C30.37 7.96241 30.3609 7.99104 30.3513 8.01947C30.337 8.06628 30.3214 8.11253 30.3044 8.15814C30.2797 8.22274 30.2523 8.28597 30.2224 8.34758C30.2211 8.35084 30.2198 8.3541 30.2185 8.35735C30.2077 8.3784 30.1966 8.39923 30.1853 8.41985C30.1833 8.42311 30.1814 8.42636 30.1794 8.42961C30.1607 8.46541 30.1412 8.50056 30.1208 8.53508C30.1189 8.53834 30.1169 8.5416 30.115 8.54485C30.1016 8.5653 30.0879 8.58548 30.0739 8.6054C30.0514 8.6407 30.0279 8.6752 30.0036 8.70891C30.001 8.71284 29.9984 8.71674 29.9958 8.72063C29.9805 8.73983 29.9649 8.75871 29.9489 8.77727C29.9268 8.80528 29.904 8.83263 29.8806 8.8593C29.8741 8.86652 29.8676 8.87368 29.8611 8.88079C29.821 8.92448 29.7793 8.96618 29.7361 9.00578C29.7289 9.01236 29.7218 9.01885 29.7146 9.02532C29.7113 9.02794 29.7081 9.03052 29.7048 9.03313C29.6913 9.04439 29.6776 9.05552 29.6638 9.06633C29.6288 9.0957 29.593 9.1237 29.5564 9.15031L29.5544 9.15227C29.5518 9.15357 29.5492 9.1549 29.5466 9.15617C29.5427 9.1588 29.5388 9.16138 29.5349 9.16399C29.4872 9.19698 29.4384 9.2276 29.3884 9.25578L29.3845 9.25969C29.3812 9.261 29.378 9.26232 29.3747 9.26359C29.3695 9.26623 29.3643 9.26884 29.3591 9.27141C29.3093 9.29926 29.2585 9.32469 29.2068 9.34758L29.2029 9.34953C29.1522 9.37153 29.1007 9.39107 29.0486 9.40812C29.044 9.40944 29.0395 9.41076 29.0349 9.41203C29.0206 9.41547 29.0063 9.41873 28.9919 9.4218C28.9621 9.42977 28.9322 9.43693 28.9021 9.44328C28.8878 9.44736 28.8735 9.45129 28.8591 9.455H28.8533C28.8111 9.46312 28.7688 9.46962 28.7263 9.47453C28.7211 9.4752 28.7159 9.47586 28.7107 9.47648C28.6912 9.47877 28.6716 9.48072 28.6521 9.48234C28.6482 9.48301 28.6443 9.48366 28.6404 9.48429C28.6046 9.48673 28.5688 9.48805 28.533 9.4882H28.529C27.4581 9.4877 26.5901 8.49281 26.5901 7.26553C26.5891 6.03754 27.4581 5.04146 28.529 5.04096V5.041ZM35.9293 5.041C37.0018 5.04027 37.8714 6.03669 37.8707 7.26558C37.8705 8.49366 37.0012 9.48895 35.9293 9.48825H35.9254C35.8634 9.48785 35.7994 9.48395 35.7364 9.47655H35.7325C35.6696 9.46899 35.607 9.4579 35.545 9.44335H35.5411C35.513 9.4356 35.485 9.42714 35.4572 9.41796C35.4224 9.40862 35.3879 9.3982 35.3536 9.38671C35.2946 9.36531 35.2346 9.34051 35.1756 9.31241L35.1717 9.31045C35.1137 9.28175 35.0567 9.24985 35.0017 9.21475L34.9977 9.21285C34.9417 9.17816 34.8877 9.14036 34.8357 9.09956L34.8318 9.0976C34.7868 9.06132 34.7431 9.02289 34.701 8.98237C34.6938 8.97591 34.6866 8.96942 34.6795 8.96284C34.6305 8.91541 34.5835 8.86522 34.5389 8.81246L34.5369 8.8105C34.5239 8.7939 34.5109 8.777 34.4979 8.7599C34.4679 8.722 34.4379 8.6829 34.4099 8.6427C34.3709 8.58561 34.3329 8.52621 34.2989 8.46491L34.2969 8.46301C34.2629 8.40161 34.2319 8.33841 34.2029 8.27351L34.201 8.2696C34.196 8.2554 34.191 8.2411 34.186 8.2267C34.163 8.1742 34.142 8.1208 34.123 8.0665C34.1 7.99871 34.08 7.92961 34.063 7.85951C34.052 7.81491 34.043 7.76991 34.035 7.72471C34.03 7.69621 34.024 7.66751 34.02 7.63881C34.009 7.56701 34.001 7.49461 33.996 7.42201V7.41811C33.9937 7.37779 33.9924 7.33741 33.9921 7.29702C33.992 7.28659 33.992 7.2762 33.9921 7.26577C33.9914 6.03778 34.8598 5.0417 35.9315 5.0412L35.9293 5.041ZM12.6526 16.4179L10.0257 18.4803L10.0198 19.1385L12.6624 17.0644L12.6526 16.4179ZM12.6722 17.7108L10.014 19.7948L10.0081 20.453L12.6819 18.3534L12.6722 17.7108ZM12.6892 18.9998L10.0002 21.1108L9.99431 21.7658L12.6992 19.6428L12.6892 18.9998ZM12.7087 20.2889L9.98804 22.4237L9.98218 23.0799L12.7184 20.9335L12.7087 20.2889ZM12.7263 21.5799L9.97432 23.7381L9.96846 24.3963L12.736 22.2264L12.7263 21.5799ZM12.7439 22.8709L9.96069 25.0564L9.95483 25.7126L12.7536 23.5173L12.7439 22.8709ZM12.7614 24.1639L9.94897 26.3728L9.79858 41.5856C9.80749 44.0818 13.0146 43.7607 13.0055 41.4743L12.7614 24.1639ZM32.4092 29.863C32.7629 29.8631 33.0497 30.1499 33.0498 30.5036C33.0497 30.8574 32.7629 31.1441 32.4092 31.1442C32.0547 31.1452 31.7667 30.8581 31.7666 30.5036C31.7667 30.1491 32.0547 29.862 32.4092 29.863ZM32.3858 30.195C32.2239 30.2067 32.0986 30.3414 32.0986 30.5036C32.0991 30.6746 32.2382 30.8129 32.4092 30.8122C32.5794 30.8118 32.7174 30.6739 32.7178 30.5036C32.7174 30.3333 32.5794 30.1954 32.4092 30.195C32.4014 30.1947 32.3936 30.1947 32.3858 30.195Z" fill="#333333"/>
</svg>
